X:34
M:C
L:1/8
K:D
f/g/|a>fd>f A<d f>d|e>df>d e/e/e ef/g/|a>f d<f e<df<d|B>AB>d F/F/F Ff/g/|
a>g d<f A<d f>d|e<d f>d e/e/e e2|f>de>d B>Ad>F|E>DE>F D/D/D D||

